app/images/dist/footer-logo.svg

<svg width="195" height="66" viewBox="0 0 195 66" fill="none" xmlns="http://www.w3.org/2000/svg">
<g clip-path="url(#clip0_119_44)">
<path d="M1.19849 0H9.05362L9.43322 0.0644286C10.1247 0.674143 10.7217 1.38129 11.3801 2.024C11.3801 3.55457 11.3801 5.08671 11.3801 6.61729C10.7138 7.28986 10.0743 7.986 9.39227 8.64286C7.5226 8.64286 5.65136 8.64286 3.78011 8.64286C3.77854 10.109 3.78011 11.5767 3.78011 13.0429C2.9138 13.0429 2.0459 13.0444 1.17959 13.0413C1.19376 8.69314 1.15754 4.34657 1.19849 0ZM3.78011 2.16229C3.78011 3.60171 3.78011 5.04114 3.78011 6.48214C5.256 6.48214 6.73189 6.48057 8.20778 6.48214C8.4283 6.26686 8.64566 6.05 8.85988 5.83C8.8583 4.82429 8.85988 3.817 8.85988 2.81129C8.64409 2.59129 8.42672 2.376 8.20778 2.16071C6.73189 2.16229 5.256 2.16071 3.78011 2.16229Z" fill="white"/>
<path d="M17.1292 0H23.3997L23.7667 0.0644286C24.4929 0.740143 25.1828 1.45514 25.8774 2.16071C25.8601 5.08986 25.8806 8.01743 25.868 10.9466C25.1623 11.6427 24.4661 12.3467 23.7604 13.0444C21.5049 13.0413 19.2477 13.0429 16.9921 13.0429C16.2881 12.3436 15.584 11.6427 14.8831 10.9387C14.8862 8.00643 14.8815 5.07257 14.8862 2.14029C15.647 1.44414 16.2959 0.606571 17.1292 0ZM17.4442 3.16171C17.4442 5.41357 17.4458 7.66543 17.4442 9.91729C17.764 10.241 18.0869 10.5616 18.4098 10.8821C19.7218 10.8821 21.0339 10.8806 22.3444 10.8821C22.6689 10.5631 22.9918 10.241 23.3115 9.91886C23.3115 7.66857 23.31 5.41671 23.3131 3.16643C22.9902 2.84271 22.6673 2.52057 22.3428 2.2C21.0323 2.20157 19.7203 2.2 18.4098 2.2C18.0869 2.519 17.7655 2.84114 17.4442 3.16171Z" fill="white"/>
<path d="M47.9795 0H57.3956C57.4302 0.732286 57.405 1.46457 57.4145 2.19843C55.1305 2.20314 52.845 2.19843 50.5611 2.2C50.5611 3.28743 50.5595 4.37486 50.5627 5.46071C52.6749 5.46071 54.7872 5.45914 56.901 5.46071C56.901 6.16786 56.901 6.875 56.901 7.58214C54.7872 7.58371 52.6749 7.58214 50.5627 7.58214C50.5595 8.68214 50.5611 9.78214 50.5627 10.8806C52.845 10.8821 55.129 10.8821 57.4113 10.8806C57.4145 11.6019 57.4129 12.3216 57.4129 13.0429C54.2627 13.0413 51.1108 13.046 47.9606 13.0397C47.9748 8.69314 47.9385 4.34657 47.9795 0Z" fill="white"/>
<path d="M61.2089 0H69.0751L69.4468 0.066C70.1367 0.675714 70.7353 1.38129 71.3921 2.024C71.3937 3.35657 71.3889 4.68914 71.3952 6.02171C70.9873 6.44129 70.5683 6.84829 70.1588 7.26314C70.5967 7.74557 71.0424 8.22329 71.474 8.71357C71.4677 10.1561 71.4724 11.5987 71.4724 13.0413C70.6171 13.0429 69.7634 13.0444 68.9097 13.0397C68.9097 11.8014 68.9144 10.5616 68.9066 9.32171C68.5427 8.921 68.1757 8.52343 67.8292 8.10857C66.484 8.074 65.1373 8.10229 63.7921 8.09286C63.7906 9.74286 63.7921 11.3929 63.7921 13.0429C62.9242 13.0429 62.0579 13.0444 61.1916 13.0413C61.2042 8.69314 61.1696 4.34657 61.2089 0ZM63.7921 2.16071C63.7921 3.432 63.7921 4.70171 63.7921 5.97143C65.268 5.97143 66.7455 5.97143 68.2214 5.97143C68.4387 5.75614 68.6561 5.54086 68.8719 5.32243C68.8703 4.48486 68.8719 3.64729 68.8719 2.80971C68.6561 2.59129 68.4387 2.376 68.2198 2.16071C66.7439 2.16229 65.268 2.16071 63.7921 2.16071Z" fill="white"/>
<path d="M75.5442 0H84.9603C84.9949 0.732286 84.9697 1.46457 84.9792 2.19843C82.6953 2.20314 80.4098 2.19843 78.1258 2.2C78.1258 3.28743 78.1243 4.37486 78.1274 5.46071C80.2397 5.46071 82.3519 5.45914 84.4657 5.46071C84.4657 6.16786 84.4657 6.875 84.4657 7.58214C82.3519 7.58371 80.2397 7.58214 78.1274 7.58214C78.1243 8.68214 78.1258 9.78214 78.1274 10.8806C80.4113 10.8837 82.6953 10.8774 84.9792 10.8837C84.976 11.6034 84.9776 12.3231 84.9776 13.0429C81.8274 13.0444 78.6771 13.0429 75.5285 13.0429C75.5363 8.69471 75.5048 4.34657 75.5442 0Z" fill="white"/>
<path d="M88.7751 0H96.7957L97.169 0.066C97.9313 0.773143 98.6433 1.53214 99.3899 2.25657C99.3915 5.11029 99.3883 7.96557 99.3915 10.8193C98.6496 11.5626 97.9061 12.3043 97.1611 13.0444C94.359 13.0397 91.5584 13.046 88.7562 13.0397C88.7704 8.69314 88.7342 4.34657 88.7751 0ZM91.3568 2.2C91.3568 5.09457 91.3568 7.98757 91.3568 10.8806C92.8626 10.8806 94.3668 10.8869 95.8726 10.8774C96.1703 10.5647 96.4885 10.2724 96.7862 9.95971C96.8823 9.74757 96.8067 9.49771 96.8303 9.27143C96.8319 7.23957 96.8256 5.20614 96.8351 3.17429C96.5185 2.84429 96.1877 2.52843 95.8695 2.20157C94.3653 2.19843 92.861 2.20157 91.3568 2.2Z" fill="white"/>
<path d="M110.353 0H118.221L118.591 0.0644286C119.221 0.638 119.799 1.26971 120.415 1.859C120.421 3.09257 120.418 4.32771 120.416 5.56129C120.171 5.80014 119.931 6.04371 119.696 6.292C120.147 6.73514 120.588 7.18457 121.01 7.65443C121.01 8.78429 121.002 9.91414 121.013 11.044C120.358 11.7197 119.682 12.375 119.021 13.0429C116.126 13.0413 113.231 13.046 110.335 13.0397C110.35 8.69314 110.313 4.34657 110.353 0ZM112.859 2.16229C112.856 3.26071 112.859 4.35914 112.856 5.45757C114.291 5.45914 115.727 5.467 117.162 5.45443C117.441 5.27057 117.698 4.99871 117.893 4.72843C117.907 4.103 117.89 3.47757 117.899 2.85214C117.669 2.61957 117.439 2.39014 117.208 2.16071C115.757 2.16071 114.308 2.16071 112.859 2.16229ZM112.857 7.54286C112.857 8.66957 112.857 9.79471 112.859 10.9199C114.451 10.923 116.044 10.9183 117.638 10.923C117.893 10.6307 118.241 10.3997 118.444 10.0713C118.458 9.48514 118.443 8.89743 118.449 8.30971C118.194 8.052 117.937 7.79743 117.68 7.54286C116.072 7.54286 114.465 7.54286 112.857 7.54286Z" fill="white"/>
<path d="M29.1128 0.0408471C29.976 0.0377042 30.8391 0.0377042 31.7023 0.0408471C32.2552 3.10828 32.7403 6.18985 33.3152 9.25413C34.1579 6.17728 35.0431 3.11142 35.9016 0.0392757C36.5537 0.0392757 37.2042 0.0377042 37.8547 0.0408471C38.7069 3.10985 39.5369 6.18513 40.4048 9.24942C40.9325 6.18042 41.4728 3.11299 41.9863 0.0392757C42.8526 0.0361328 43.7173 0.0424185 44.5836 0.0361328C43.7031 4.37485 42.7911 8.70728 41.8886 13.0428C41.079 13.0287 40.2662 13.0743 39.4566 13.0193C38.625 9.97385 37.7476 6.94099 36.8844 3.90656C35.9661 6.94099 35.1124 9.99742 34.2241 13.0428C33.4176 13.0428 32.6096 13.0444 31.8031 13.0428C30.9179 8.7057 29.9996 4.37642 29.1128 0.0408471Z" fill="white"/>
<path d="M123.151 0.0398705C124.093 0.0382991 125.036 0.041442 125.978 0.0367277C127.008 1.80458 128.04 3.57244 129.072 5.3403C130.125 3.58187 131.133 1.79673 132.182 0.0351562C133.124 0.041442 134.066 0.041442 135.008 0.0351562C133.479 2.60601 131.908 5.15173 130.39 7.7273C130.369 9.4983 130.385 11.2693 130.382 13.0419C129.514 13.045 128.646 13.0434 127.78 13.0419C127.775 11.2724 127.793 9.50301 127.774 7.73358C126.244 5.16273 124.677 2.6123 123.151 0.0398705Z" fill="white"/>
<path d="M6.209 21.2965C11.4368 21.2651 16.6662 21.3138 21.8941 21.2227C24.2615 21.2274 26.6289 21.2227 28.9963 21.2258C31.8504 21.4112 34.1816 24.0607 34.2068 26.8751C34.2099 38.2428 34.2115 49.6089 34.2068 60.9751C34.1816 63.3778 32.1859 65.6061 29.7634 65.7884C21.1569 65.7931 12.5489 65.7868 3.9424 65.7915C1.9672 65.7334 0.176286 64.0567 0.069178 62.0719C0.069178 50.2312 0.0707531 38.3905 0.0676028 26.5498C0.0282248 24.8951 0.67875 23.1555 2.05541 22.1624C2.82249 21.6281 3.75339 21.1834 4.71264 21.3059C5.21037 21.3201 5.71126 21.3264 6.209 21.2965ZM14.4611 31.8597C13.8499 32.1362 13.4813 32.8057 13.5065 33.4672C13.5128 36.6164 13.505 39.7655 13.5113 42.9162C13.5223 43.1237 13.4231 43.3185 13.4357 43.5275C13.4435 47.2439 13.4309 50.9604 13.442 54.6768C13.568 55.3761 14.2358 55.9779 14.9651 55.9261C15.9086 55.9669 16.8552 55.9827 17.7987 55.9387C18.2634 55.9717 18.7344 55.9874 19.1959 55.9104C19.8559 55.7957 20.3819 55.1969 20.4402 54.5369C20.4402 47.4058 20.4371 40.2747 20.4418 33.1419C20.4229 32.4128 19.8054 31.6632 19.0384 31.6758C17.9988 31.7685 16.9529 31.6978 15.9102 31.7198C15.4266 31.7418 14.9131 31.6349 14.4611 31.8597Z" fill="white"/>
<path d="M38.0515 21.2254C46.3004 21.2239 54.5493 21.2223 62.7998 21.2254C63.0629 21.4486 63.3117 21.6906 63.5543 21.9373C66.462 24.8429 69.3775 27.7406 72.2836 30.6477C72.2773 39.2859 72.2757 47.9256 72.2852 56.5637C69.2893 59.5966 66.2493 62.5839 63.2424 65.6057C63.0959 65.7534 62.9447 65.898 62.762 66.0002H38.0562C38.0484 51.0747 38.0562 36.1509 38.0515 21.2254ZM52.4623 31.7572C51.8874 31.9457 51.4227 32.5334 51.4826 33.1526C51.4904 40.2806 51.4826 47.4086 51.4873 54.5382C51.5204 55.2626 52.193 55.899 52.927 55.8739C54.4296 55.8755 55.9323 55.877 57.435 55.8723C58.2209 55.8912 58.8778 55.1369 58.8085 54.3653C58.81 47.2939 58.8085 40.2224 58.81 33.1526C58.873 32.414 58.2493 31.6849 57.4917 31.7037C55.8173 31.7634 54.1288 31.6613 52.4623 31.7572Z" fill="white"/>
<path d="M75.3931 21.4278C78.4141 21.423 81.4337 21.4215 84.4547 21.4293C84.4484 32.9888 84.4579 44.5498 84.45 56.1108C84.4122 56.5146 84.8532 56.7755 85.2124 56.7613C90.4071 56.7629 95.6003 56.7582 100.795 56.7645C100.817 56.8148 100.861 56.9153 100.883 56.9656C100.841 59.9403 100.856 62.9292 100.872 65.907C94.0267 65.9558 87.1781 65.9196 80.3311 65.9306C78.6866 65.9165 77.0406 65.9605 75.3962 65.8976C75.3962 51.0743 75.4025 36.251 75.3931 21.4278Z" fill="white"/>
<path d="M113.029 21.5181C113.18 21.3924 113.352 21.3358 113.547 21.3484C116.393 21.3547 119.241 21.3468 122.087 21.3531C122.499 21.3531 122.494 21.8811 122.585 22.1671C125.676 36.7845 128.84 51.3862 131.938 66.0005H122.993C122.891 65.8528 122.792 65.6973 122.777 65.5165C122.513 63.9074 122.195 62.3077 121.954 60.697C122.012 60.1737 121.714 59.5325 121.125 59.5153C118.912 59.5074 116.699 59.5153 114.486 59.5105C114.032 59.487 113.626 59.9034 113.659 60.3528C113.467 61.8237 113.213 63.2867 112.942 64.7434C112.865 65.1331 112.845 65.5464 112.632 65.8952C111.213 65.9628 109.794 65.9188 108.376 65.9298C106.801 65.9675 105.226 66.0178 103.651 65.9785C106.741 51.3957 109.935 36.8348 112.986 22.2441C113.037 22.0053 113.027 21.7601 113.029 21.5181ZM117.515 39.9023C116.926 42.91 116.442 45.9381 115.88 48.9505C115.785 49.4267 115.64 50.1385 116.244 50.3365C117.343 50.3475 118.446 50.3491 119.547 50.335C120.038 50.1621 119.983 49.5917 119.947 49.1753C119.501 46.5101 119.043 43.8481 118.578 41.1861C118.51 40.5748 118.365 39.9667 118.402 39.3475C117.965 38.9594 117.526 39.4544 117.515 39.9023Z" fill="white"/>
<path d="M134.885 21.3477C142.063 21.3539 149.242 21.3461 156.42 21.3524C157.236 21.3052 157.713 22.0328 158.232 22.5325C159.755 24.1055 161.376 25.5795 162.927 27.1242C163.322 27.4982 163.471 28.0577 163.456 28.5872C163.453 32.5221 163.455 36.4554 163.455 40.3902C163.453 40.9481 163.51 41.5358 163.256 42.0544C162.981 42.7049 162.163 42.9548 162.006 43.6745C162.185 44.3927 163.014 44.6142 163.278 45.2789C163.526 45.7598 163.444 46.3098 163.455 46.8299C163.455 50.9204 163.453 55.0108 163.456 59.1028C163.46 59.4564 163.323 59.8147 163.074 60.0677C161.812 61.3264 160.561 62.5961 159.296 63.8501C158.544 64.5714 157.88 65.3869 157.03 65.9998H134.951C134.947 51.5427 134.951 37.0871 134.95 22.6299C134.944 22.2025 134.984 21.7688 134.885 21.3477ZM144.35 30.6929C144.169 30.7809 144.084 30.9758 144.01 31.1471C143.996 33.4948 144.012 35.8441 144.002 38.1918C143.93 38.6318 144.334 39.0577 144.771 39.0608C146.13 39.0577 147.489 39.0577 148.85 39.0608C150.421 38.9131 152.007 39.0372 153.584 38.9838C153.947 38.9052 154.281 38.5784 154.261 38.1918C154.255 35.8849 154.262 33.5765 154.258 31.2697C154.242 30.9318 153.954 30.5405 153.579 30.5939C150.569 30.5987 147.557 30.5892 144.547 30.5987C144.498 30.6222 144.399 30.6694 144.35 30.6929ZM144.482 48.1594C144.103 48.2599 143.845 48.6434 143.901 49.0347C143.908 51.3399 143.884 53.6484 143.914 55.9537C143.898 56.3984 144.331 56.7127 144.752 56.6891C147.688 56.6907 150.625 56.6875 153.561 56.6907C153.955 56.7237 154.329 56.3434 154.261 55.9489C154.256 53.6421 154.258 51.3337 154.259 49.0268C154.277 48.5899 153.895 48.2427 153.473 48.2238C151.986 48.1877 150.493 48.2945 149.014 48.1531C147.504 48.1625 145.993 48.1468 144.482 48.1594Z" fill="white"/>
<path d="M172.401 21.7725C172.647 21.4818 173.025 21.3309 173.405 21.3482C178.348 21.3529 183.292 21.3513 188.236 21.3482C188.616 21.3262 188.962 21.5478 189.202 21.8275C190.92 23.6158 192.687 25.3585 194.442 27.1106C194.713 27.3762 194.91 27.7423 194.9 28.1289C194.894 29.9643 194.908 31.8013 194.893 33.6368C194.745 33.8552 194.428 33.7295 194.212 33.7656C191.478 33.7609 188.743 33.7672 186.009 33.764C185.812 33.4938 185.891 33.1575 185.881 32.8479C185.877 32.2618 185.891 31.6772 185.877 31.0926C185.825 30.7218 185.445 30.4798 185.089 30.5238C182.101 30.5332 179.111 30.5128 176.125 30.5332C175.903 30.64 175.67 30.8538 175.687 31.1209C175.695 33.5645 175.684 36.0096 175.693 38.4532C175.766 38.857 176.207 39.0629 176.587 39.0582C180.465 39.0582 184.342 39.0598 188.222 39.0566C188.661 39.011 189 39.3552 189.321 39.6066C191.065 41.3902 192.842 43.1408 194.604 44.9055C194.779 45.0862 194.93 45.3282 194.93 45.589C194.932 50.1415 194.929 54.6923 194.932 59.2448C194.965 59.5575 194.79 59.845 194.568 60.0493C192.716 61.8769 190.895 63.7359 189.044 65.5635C188.789 65.8165 188.433 65.9799 188.072 65.9328C183.09 65.895 178.113 66.0318 173.131 65.9846C172.513 65.7599 172.12 65.2083 171.666 64.7699C170.296 63.4106 168.944 62.0356 167.577 60.6748C167.065 60.219 166.578 59.6408 166.6 58.9132C166.611 57.1469 166.55 55.3775 166.633 53.6143C167.936 53.4572 169.262 53.586 170.574 53.5436C172.277 53.5578 173.981 53.5153 175.684 53.5656C175.703 54.4032 175.679 55.2423 175.693 56.0799C175.709 56.4382 176.04 56.765 176.404 56.7619C179.414 56.7603 182.426 56.7666 185.437 56.7572C185.695 56.6503 185.93 56.3942 185.907 56.0972C185.914 53.7385 185.911 51.3798 185.908 49.021C185.946 48.5826 185.536 48.2322 185.121 48.2259C181.162 48.2165 177.202 48.2275 173.244 48.2212C172.814 48.196 172.453 47.9163 172.173 47.6146C170.351 45.8562 168.612 44.0129 166.81 42.234C166.495 41.9072 166.536 41.4279 166.531 41.0115C166.539 36.8346 166.52 32.6578 166.54 28.4809C166.507 27.8178 166.868 27.2143 167.364 26.7979C169.045 25.1243 170.726 23.4508 172.401 21.7725Z" fill="white"/>
</g>
<defs>
<clipPath id="clip0_119_44">
<rect width="195" height="66" fill="white"/>
</clipPath>
</defs>
</svg>

<svg width="195" height="66" fill="none" xmlns="http://www.w3.org/2000/svg"><g clip-path="url(#clip0_119_44)" fill="#fff"><path d="M1.198 0h7.856l.38.064c.69.61 1.288 1.317 1.946 1.96v4.593c-.666.673-1.306 1.369-1.988 2.026H3.78v4.4c-.866 0-1.734.001-2.6-.002.014-4.348-.022-8.694.018-13.041zM3.78 2.162v4.32h4.428c.22-.215.438-.432.652-.652-.002-1.006 0-2.013 0-3.019-.216-.22-.433-.435-.652-.65l-4.428.001zM17.13 0h6.27l.367.064c.726.676 1.416 1.391 2.11 2.097-.017 2.929.004 5.856-.009 8.786-.706.696-1.402 1.4-2.108 2.097-2.255-.003-4.512-.001-6.768-.001-.704-.7-1.408-1.4-2.109-2.104.003-2.933-.001-5.866.003-8.799.761-.696 1.41-1.533 2.243-2.14zm.314 3.162c0 2.252.002 4.503 0 6.755.32.324.643.645.966.965h3.934c.325-.319.648-.641.967-.963 0-2.25-.001-4.502.002-6.753-.323-.323-.646-.645-.97-.966-1.31.002-2.623 0-3.933 0-.323.319-.645.641-.966.962zM47.98 0h9.416c.034.732.009 1.465.018 2.198-2.284.005-4.569 0-6.853.002 0 1.087-.002 2.175.002 3.26H56.9v2.122c-2.114.002-4.226 0-6.338 0-.004 1.1-.002 2.2 0 3.299h6.848c.003.72.002 1.44.002 2.162-3.15-.002-6.302.003-9.452-.003.014-4.347-.023-8.693.019-13.04zm13.229 0h7.866l.372.066c.69.61 1.288 1.315 1.945 1.958.002 1.333-.003 2.665.003 3.998-.408.42-.827.826-1.236 1.241.438.483.883.96 1.315 1.45-.006 1.443-.002 2.886-.002 4.328-.855.002-1.709.003-2.562-.001 0-1.239.004-2.478-.003-3.718-.364-.401-.731-.799-1.078-1.213-1.345-.035-2.692-.007-4.037-.016v4.95c-.868 0-1.734.001-2.6-.002.012-4.348-.022-8.694.017-13.041zm2.583 2.16v3.811h4.43c.217-.215.434-.43.65-.649-.002-.837 0-1.675 0-2.512a64.047 64.047 0 00-.652-.65c-1.476.002-2.952 0-4.428 0zM75.544 0h9.416c.035.732.01 1.465.02 2.198-2.285.005-4.57 0-6.854.002 0 1.087-.002 2.175.001 3.26h6.339v2.122c-2.114.002-4.226 0-6.339 0-.003 1.1-.001 2.2 0 3.299 2.284.003 4.568-.004 6.852.003-.003.72-.001 1.44-.001 2.159h-9.45c.008-4.348-.023-8.696.016-13.043zm13.231 0h8.02l.374.066c.762.707 1.474 1.466 2.22 2.19.002 2.854 0 5.71.002 8.563a584.75 584.75 0 01-2.23 2.225c-2.802-.004-5.603.002-8.405-.004.014-4.347-.022-8.693.02-13.04zm2.582 2.2v8.68c1.506 0 3.01.007 4.516-.003.297-.312.615-.605.913-.917.096-.212.02-.462.044-.689.002-2.031-.004-4.065.005-6.097-.316-.33-.647-.646-.965-.972-1.505-.004-3.009 0-4.513-.002zM110.353 0h7.868l.37.064c.63.574 1.208 1.206 1.824 1.795.006 1.234.003 2.469.001 3.702-.245.24-.485.483-.72.731.451.443.892.893 1.314 1.362 0 1.13-.008 2.26.003 3.39-.655.676-1.331 1.331-1.992 1.999-2.895-.002-5.79.003-8.686-.003.015-4.347-.022-8.693.018-13.04zm2.506 2.162c-.003 1.099 0 2.197-.003 3.296 1.435.001 2.871.009 4.306-.004.279-.183.536-.455.731-.726.014-.625-.003-1.25.006-1.876-.23-.232-.46-.462-.691-.691l-4.349.001zm-.002 5.38c0 1.128 0 2.253.002 3.378 1.592.003 3.185-.002 4.779.003.255-.292.603-.523.806-.852.014-.586-.001-1.174.005-1.761a92.643 92.643 0 00-.769-.767h-4.823zM29.113.04c.863-.002 1.726-.002 2.59 0 .552 3.068 1.037 6.15 1.612 9.214.843-3.077 1.728-6.143 2.587-9.215.652 0 1.302-.001 1.953.002.852 3.069 1.682 6.144 2.55 9.208.527-3.069 1.068-6.136 1.581-9.21.867-.003 1.731.003 2.598-.003-.88 4.339-1.793 8.671-2.695 13.007-.81-.014-1.623.031-2.432-.024-.832-3.045-1.71-6.078-2.573-9.112-.918 3.034-1.772 6.09-2.66 9.136h-2.42C30.917 8.706 30 4.376 29.112.04zm94.038 0c.942-.002 1.885.001 2.827-.003a7290.9 7290.9 0 003.094 5.303c1.053-1.758 2.061-3.543 3.11-5.305.942.006 1.884.006 2.826 0-1.529 2.571-3.1 5.117-4.618 7.692-.021 1.771-.005 3.542-.008 5.315-.868.003-1.736.001-2.602 0-.005-1.77.013-3.539-.006-5.308-1.53-2.571-3.097-5.122-4.623-7.694zM6.209 21.297c5.228-.032 10.457.017 15.685-.074 2.368.004 4.735 0 7.102.003 2.854.185 5.186 2.835 5.21 5.65.004 11.367.005 22.733 0 34.1-.024 2.402-2.02 4.63-4.443 4.812-8.606.005-17.214-.001-25.82.004-1.976-.059-3.767-1.735-3.874-3.72 0-11.84.002-23.681-.001-35.522-.04-1.655.61-3.395 1.987-4.388.767-.534 1.698-.979 2.658-.856.497.014.998.02 1.496-.01zm8.252 10.563c-.611.276-.98.946-.954 1.607.006 3.15-.002 6.299.004 9.45.011.207-.088.401-.075.61.008 3.717-.005 7.433.006 11.15.126.7.794 1.3 1.523 1.25.944.04 1.89.056 2.834.012.464.033.935.048 1.397-.029.66-.114 1.186-.713 1.244-1.373 0-7.131-.003-14.262.002-21.395-.02-.73-.637-1.479-1.404-1.466-1.04.093-2.085.022-3.128.044-.483.022-.997-.085-1.449.14zm23.59-10.635c8.25-.001 16.498-.003 24.749 0 .263.224.512.466.754.712 2.908 2.906 5.823 5.804 8.73 8.71-.007 8.639-.008 17.279.001 25.917-2.996 3.033-6.036 6.02-9.043 9.042a2.226 2.226 0 01-.48.394H38.056c-.008-14.925 0-29.85-.005-44.775zm14.411 10.532c-.575.189-1.04.776-.98 1.396.008 7.128 0 14.256.005 21.385.033.725.706 1.361 1.44 1.336 1.503.002 3.005.003 4.508-.002.786.02 1.443-.735 1.373-1.507.002-7.071 0-14.143.002-21.212.063-.739-.56-1.468-1.318-1.45-1.675.06-3.363-.042-5.03.054zm22.931-10.329c3.021-.005 6.04-.006 9.062.001-.007 11.56.003 23.12-.005 34.682-.038.404.403.665.762.65 5.195.002 10.388-.003 15.583.003l.088.202c-.042 2.974-.027 5.963-.011 8.941-6.845.049-13.694.013-20.54.024-1.645-.014-3.291.03-4.936-.033 0-14.824.007-29.647-.003-44.47zm37.636.09a.71.71 0 01.518-.17c2.846.007 5.694-.001 8.54.005.412 0 .407.528.498.814 3.091 14.617 6.255 29.22 9.353 43.834h-8.945c-.102-.148-.201-.304-.216-.485-.264-1.609-.582-3.208-.823-4.819.058-.523-.24-1.165-.829-1.182-2.213-.008-4.426 0-6.639-.005-.454-.023-.86.393-.827.843a82.217 82.217 0 01-.717 4.39c-.077.39-.097.803-.31 1.152-1.419.068-2.838.024-4.256.035-1.575.037-3.15.088-4.725.048 3.09-14.582 6.284-29.143 9.335-43.734.051-.239.041-.484.043-.726zm4.486 18.384c-.589 3.008-1.073 6.036-1.635 9.048-.095.477-.24 1.188.364 1.386 1.099.011 2.202.013 3.303-.001.491-.173.436-.743.4-1.16-.446-2.665-.904-5.327-1.369-7.989-.068-.611-.213-1.22-.176-1.839-.437-.388-.876.107-.887.555zm17.37-18.554c7.178.006 14.357-.002 21.535.004.816-.047 1.293.68 1.812 1.18 1.523 1.573 3.144 3.047 4.695 4.592.395.374.544.934.529 1.463-.003 3.935-.001 7.868-.001 11.803-.002.558.055 1.146-.199 1.664-.275.65-1.093.9-1.25 1.62.179.719 1.008.94 1.272 1.605.248.48.166 1.03.177 1.55 0 4.091-.002 8.182.001 12.274a1.37 1.37 0 01-.382.965c-1.262 1.258-2.513 2.528-3.778 3.782-.752.721-1.416 1.537-2.266 2.15h-22.079c-.004-14.457 0-28.913-.001-43.37-.006-.427.034-.861-.065-1.282zm9.465 9.345c-.181.088-.266.283-.34.454-.014 2.348.002 4.697-.008 7.045-.072.44.332.866.769.869a894.53 894.53 0 014.079 0c1.571-.148 3.157-.024 4.734-.077.363-.079.697-.406.677-.792-.006-2.307.001-4.615-.003-6.922-.016-.338-.304-.73-.679-.676-3.01.005-6.022-.005-9.032.005l-.197.094zm.132 17.466a.801.801 0 00-.581.876c.007 2.305-.017 4.613.013 6.919-.016.444.417.759.838.735 2.936.002 5.873-.002 8.809.002.394.033.768-.348.7-.742-.005-2.307-.003-4.615-.002-6.922.018-.437-.364-.784-.786-.803-1.487-.036-2.98.07-4.459-.07-1.51.008-3.021-.007-4.532.005zm27.919-26.386a1.243 1.243 0 011.004-.425c4.943.005 9.887.003 14.831 0 .38-.022.726.2.966.48 1.718 1.788 3.485 3.53 5.24 5.283.271.265.468.631.458 1.018-.006 1.835.008 3.672-.007 5.508-.148.218-.465.093-.681.129-2.734-.005-5.469.001-8.203-.002-.197-.27-.118-.607-.128-.916-.004-.586.01-1.17-.004-1.755-.052-.371-.432-.613-.788-.57-2.988.01-5.978-.01-8.964.01-.222.107-.455.32-.438.588.008 2.444-.003 4.889.006 7.332.073.404.514.61.894.605 3.878 0 7.755.002 11.635-.001.439-.046.778.298 1.099.55 1.744 1.783 3.521 3.534 5.283 5.299.175.18.326.422.326.683.002 4.553-.001 9.103.002 13.656.033.313-.142.6-.364.804-1.852 1.828-3.673 3.687-5.524 5.515-.255.253-.611.416-.972.369-4.982-.038-9.959.099-14.941.052-.618-.225-1.011-.777-1.465-1.215-1.37-1.36-2.722-2.734-4.089-4.095-.512-.456-.999-1.034-.977-1.762.011-1.766-.05-3.535.033-5.299 1.303-.157 2.629-.028 3.941-.07 1.703.014 3.407-.029 5.11.022.019.837-.005 1.676.009 2.514.016.358.347.685.711.682 3.01-.002 6.022.005 9.033-.005.258-.107.493-.363.47-.66.007-2.358.004-4.717.001-7.076.038-.438-.372-.789-.787-.795-3.959-.01-7.919.002-11.877-.005-.43-.025-.791-.305-1.071-.606-1.822-1.759-3.561-3.602-5.363-5.381-.315-.327-.274-.806-.279-1.223.008-4.176-.011-8.353.009-12.53-.033-.663.328-1.267.824-1.683 1.681-1.674 3.362-3.347 5.037-5.025z"/></g><defs><clipPath id="clip0_119_44"><path fill="#fff" d="M0 0h195v66H0z"/></clipPath></defs></svg>
